polaris-icons/icons/newicons/EnvelopeMajor.svg

<svg width="20" height="20" viewBox="0 0 20 20" fill="none" xmlns="http://www.w3.org/2000/svg">
<path d="M5 9.75C5 9.33579 5.33579 9 5.75 9H6.75C7.16421 9 7.5 9.33579 7.5 9.75C7.5 10.1642 7.16421 10.5 6.75 10.5H5.75C5.33579 10.5 5 10.1642 5 9.75Z" fill="black"/>
<path d="M5.75 11.5C5.33579 11.5 5 11.8358 5 12.25C5 12.6642 5.33579 13 5.75 13H8.75C9.16421 13 9.5 12.6642 9.5 12.25C9.5 11.8358 9.16421 11.5 8.75 11.5H5.75Z" fill="black"/>
<path fill-rule="evenodd" clip-rule="evenodd" d="M18 13C18 14.6569 16.6569 16 15 16H5C3.34315 16 2 14.6569 2 13V7C2 5.34315 3.34315 4 5 4H15C16.6569 4 18 5.34315 18 7V13ZM5 5.5H15C15.0813 5.5 15.1611 5.50647 15.2389 5.51892C15.1728 5.54644 15.1072 5.57783 15.0423 5.61325L13.5423 6.43143C12.8998 6.78189 12.5 7.45533 12.5 8.18722V11.8127C12.5 12.5446 12.8998 13.218 13.5423 13.5685L15.0423 14.3867C15.1073 14.4221 15.1729 14.4535 15.2391 14.4811C15.1612 14.4935 15.0814 14.5 15 14.5H5C4.17157 14.5 3.5 13.8284 3.5 13V7C3.5 6.17157 4.17157 5.5 5 5.5ZM16.5 12.6309V7.36904C16.5 6.98951 16.0938 6.74835 15.7606 6.93009L14.2606 7.74827C14.0999 7.83589 14 8.00425 14 8.18722V11.8127C14 11.9957 14.0999 12.164 14.2606 12.2516L15.7606 13.0698C16.0938 13.2516 16.5 13.0104 16.5 12.6309Z" fill="black"/>
</svg>

<svg viewBox="0 0 20 20" fill="none" xmlns="http://www.w3.org/2000/svg"><path d="M5 9.75a.75.75 0 0 1 .75-.75h1a.75.75 0 0 1 0 1.5h-1a.75.75 0 0 1-.75-.75Z" fill="#000"/><path d="M5.75 11.5a.75.75 0 0 0 0 1.5h3a.75.75 0 0 0 0-1.5h-3Z" fill="#000"/><path fill-rule="evenodd" clip-rule="evenodd" d="M18 13a3 3 0 0 1-3 3h-10a3 3 0 0 1-3-3v-6a3 3 0 0 1 3-3h10a3 3 0 0 1 3 3v6Zm-13-7.5h10c.081 0 .161.006.239.019a2.075 2.075 0 0 0-.197.094l-1.5.818a2 2 0 0 0-1.042 1.756v3.626a2 2 0 0 0 1.042 1.755l1.5.819c.065.035.13.066.197.094a1.52 1.52 0 0 1-.239.019h-10a1.5 1.5 0 0 1-1.5-1.5v-6a1.5 1.5 0 0 1 1.5-1.5Zm11.5 7.13v-5.261a.5.5 0 0 0-.74-.439l-1.5.818a.5.5 0 0 0-.26.44v3.625a.5.5 0 0 0 .26.439l1.5.818a.5.5 0 0 0 .74-.44Z" fill="#000"/></svg>
